X: 42
T: Lady Madalina Sinclair's Birthday
T: Strathspey, A
L: 1/16
M: C
K: A
|: (3a2g2f2| e1A3 c3A1 (3c2d2e2f4| e3e1 f1e1d1c1 B4B2 a1f1| e1A3 c3A1 (3c2d2e2 (3f2g2a2 | e1A3 c3B1 A4 :| 
f2g2| a3g1 f3e1 (3f2g2a2 (3g2a2b2| a1g1f1e1 a3c1 (B4B2) f1g1| a3g1 f3e1 (3f2g2a2 (3g2a2b2| (3a2g2f2 (3e2f2g2a4 (3e2f2g2| 
a1f3 g3e1 f3d1 e3c1| d1b3 c1a3 (B4B3) d1| (3c2d2e2f4 (3e2f2g2a4| e1A3 c3B1 A4|| 
D: Wendy MacIsaac, That's what you get, WMT004
